X:64
T:Humours of Drinagh
Z: id:dc-jig-53
M:6/8
L:1/8
K:D Major
B|AFA ABc|dfd ecA|AFA ABc|dBA GFG|!
AFA ABc|dfd ece|fdf gec|Adc d2:|!
e|fdf gfg|aba gfe|fdf gfg|aba g3|!
aba gag|fgf ece|fdf gec|Adc d2:|!
B|AFD DBc|dfd ecA|AFD DBc|dBA GFG|!
AFD DBc|dfd ece|fdf gec|Adc d2:|!
f|agf gag|fdf ecA|agf gag|fdf efg|!
agf gag|fdf ece|fdf gec|Adc d2:|!

